X: 45
T: Pollonesse #45
M: 3/4
L: 1/16
K: Bb
Q:110
|F2BA GFED C2B,2|B,2B2 BABd c2B2|EBGB EBGB EBGB|EBGB FGAB _A2G2|
|B,FDF B,FDF B,FDF|B,FDF F2_A2 A2G2|G,EB,E G,EB,E G,EB,E| _A,ECE  _A,ECE _A,ECE|
|B,FDF B,FDF B,4|E2D2 E4 _AGFE|DEFG [B,4F4] [E4G,4]:|
|B2f=e dcBA G2F2|F2f2 f=efa g2f2|Bfdf Bfdf Bfdf|
|Bfdf cdef e2d2|Fc_Ac Fc_Ac Fc_Ac|Fc_Ac F2e2 e2d2|EBGB EBGB EBGB|
|DBFB DBFB DBFB| FcAc FcAc F4| BAB2 d2bf ecdB|ABcd [c4E4][B4F4]:|

